X:1
T:Bjarkemaalet
T:Bjarkemaalet
T:L. M. Lindeman
C:L. M. Lindeman
%%score [ 1 2 3 4 ]
L:1/8
Q:1/4=72
M:6/8
K:C
V:1 treble-8 nm="T1"
V:2 treble-8 nm="T2"
V:3 bass nm="B1"
V:4 bass nm="B2"
V:1
"^Andante"!p! A2 E A2 B | c2 A!<(! c2 d!<)! | (ec) e g2 f | e2 d e3 :|!f! e2 d (cB) A | %5
w: Sol er op- pe,|Sko- vens Top- pe|glim- * re alt som|Gim- les Tag;|Vaag- ner, vaag- * ner|
w: Bud os brin- ger|Ha- ne- vin- ger|Ha- * ne- gal om|kla- ren Dag.||
 (GA) F E2 E | e2 d (cB) A |!>(! (GA)!>)! F E2 E |!p! A2 B c2 A | B2 ^G A3 |] %10
w: dan- * ske Hel- te!|sprin- ger op _ og|spen- * der Bel- te!|Dag og Daad er|Kjæm- pe- rim.|
w: |||||
V:2
!p! E2 E E2 ^G | A2 A!<(! A2 B!<)! | c2 c e2 d | c2 B c3 :|!f! c2 B (AG) F | (EF) D C2 E | %6
w: Sol er op- pe,|Sko- vens Top- pe|glim- re alt som|Gim- les Tag;|Vaag- ner, vaag- * ner|dan- * ske Hel- te!|
w: Bud os brin- ger|Ha- ne- vin- ger|Ha- ne- gal om|kla- ren Dag.|||
 (Gc) B (AG) F |!>(! (EF)!>)! D C2 E |!p! E2 ^G A2 c | B2 B A3 |] %10
w: sprin- * ger op _ og|spen- * der Bel- te!|Dag og Daad er|Kjæm- pe- rim.|
w: ||||
V:3
!p! E,2 E, E,2 E, | E,2 E,!<(! E,2 G,!<)! | G,2 C C2 A, | G,2 G, G,3 :|!f! G,2 G, E,2 F, | %5
w: Sol er op- pe,|Sko- vens Top- pe|glim- re alt som|Gim- les Tag;|Vaag- ner, vaag- ner|
w: Bud os brin- ger|Ha- ne- vin- ger|Ha- ne- gal om|kla- ren Dag.||
 C,2 D, E,2 E, | (E,G,) F, E,2 F, |!>(! C,2!>)! D, E,2 E, |!p! E,2 E, E,2 E, | F,2 D, C,3 |] %10
w: dan- ske Hel- te!|sprin- * ger op og|spen- der Bel- te!|Dag og Daad er|Kjæm- pe- rim.|
w: |||||
V:4
!p! C,2 E, C,2 B,, | A,,2 C,!<(! A,,2 G,,!<)! | (C,E,) G, C2 F, | G,2 G, C,3 :| %4
w: Sol er op- pe,|Sko- vens Top- pe|glim- * re alt som|Gim- les Tag;|
w: Bud os brin- ger|Ha- ne- vin- ger|Ha- * ne- gal om|kla- ren Dag.|
!f! C,2 G,, A,,2 B,, | C,2 B,, C,2 E, | C,2 G,, A,,2 B,, |!>(! C,2!>)! B,, C,2 E, | %8
w: Vaag- ner, vaag- ner|dan- ske Hel- te!|sprin- ger op og|spen- der Bel- te!|
w: ||||
!p! C,2 B,, A,,2 C, | D,2 E, A,,3 |] %10
w: Dag og Daad er|Kjæm- pe- rim.|
w: ||

